resources/svg/rounded-corner-o.svg

<svg xmlns="http://www.w3.org/2000/svg" viewBox="0 0 24 24" fill="currentColor"><path d="M19 19h2v2h-2v-2zm0-2h2v-2h-2v2zM3 13h2v-2H3v2zm0 4h2v-2H3v2zm0-8h2V7H3v2zm0-4h2V3H3v2zm4 0h2V3H7v2zm8 16h2v-2h-2v2zm-4 0h2v-2h-2v2zm4 0h2v-2h-2v2zm-8 0h2v-2H7v2zm-4 0h2v-2H3v2zM21 8c0-2.76-2.24-5-5-5h-5v2h5c1.65 0 3 1.35 3 3v5h2V8z"/></svg>

<svg xmlns="http://www.w3.org/2000/svg" viewBox="0 0 24 24" fill="currentColor"><path d="M19,19h2v2h-2V19z M19,17h2v-2h-2V17z M3,13h2v-2H3V13z M3,17h2v-2H3V17z M3,9h2V7H3V9z M3,5h2V3H3V5z M7,5h2V3H7V5z M15,21h2v-2h-2V21z M11,21h2v-2h-2V21z M7,21h2v-2H7V21z M3,21h2v-2H3V21z M21,8c0-2.8-2.2-5-5-5h-5v2h5c1.6,0,3,1.3,3,3v5h2V8z"/></svg>
